X:1
T:Why should we start and fear to die?
T:Richard Taylor
T:p21, The Beauties of Sacred Verse, London: [1789]
T:This edition by Edmund Gooch released into the public domain, December 2016.
T:Why should we start and fear to die?
T:DISOLUTION
C:Richard Taylor
Z:p21, The Beauties
Z:of Sacred Verse,
Z:London: [1789]
%%score [ 1 2 3 4 ]
L:1/8
M:3/4
K:Gmin
V:1 treble nm="SOPRANO" snm="S."
V:2 treble nm="ALTO" snm="A."
V:3 treble-8 transpose=-12 nm="TENOR" snm="T."
V:4 bass nm="BASS" snm="B."
V:1
 B2 G2 A2 | (c2 A2) A2 | d4 d2 | d6 | d2 d2 B2 | c4 c2 | B4 F2 | F4 G2 | (A>G A2) B2 | (c2 B2) B2 | %10
w: Oh! if my|Lord _ would|come and|meet,|My soul should|stretch her|wings in|haste, Fly|fear- * * less|through _ death’s|
w: Why should we|start _ and|fear to|die?|What tim- ’rous|worms we|mor- tals|are! Death|is _ _ the|gate _ of|
w: The pains, the|groans, _ the|dy- ing|strife|Fright our ap-|proach- ing|souls a-|way; Still|we _ _ shrink|back _ a-|
 (B2 A2) B2 | (B2 A2) A2 | (B3 A) (G^F) | (GB d2) G2 | A2 (B2 ^F2) | G4 |] %16
w: i- * ron|gate, _ Nor|feel _ the _|ter- * * rors|as she _|pass’d.|
w: end- * less|joy, _ And|yet _ we _|dread _ _ to|en- ter _|there.|
w: gain _ to|life, _ Fond|of _ our _|pri- * * son|and our _|clay.|
V:2
 D2 D2 ^F2 | (G2 ^F2) D2 | (G2 A2) G2 | (G2 ^F4 | G2 D2 G2 | F4 E2 | F>E D2) C2 | D4 D2 | F4 F2 | %9
w: Oh! if my|Lord _ would|come _ and|meet, _|My soul should|stretch her|wings _ _ in|haste, Fly|fear- less|
w: Why should we|start _ and|fear _ to|die? _|What tim- ’rous|worms we|mor- * * tals|are! Death|is the|
w: The pains, the|groans, _ the|dy- * ing|strife _|Fright our ap-|proach- ing|souls _ _ a-|way; Still|we shrink|
 F4 G2 | (B2 E2) F2 | F4 ^F2 | (G2 D2) D2 | (DG ^F2) D2 | D4 D2 | D4 |] %16
w: through death’s|i- * ron|gate, Nor|feel _ the|ter- * * rors|as she|pass’d.|
w: gate of|end- * less|joy, And|yet _ we|dread _ _ to|en- ter|there.|
w: back a-|gain _ to|life, Fond|of _ our|pri- * * son|and our|clay.|
V:3
 G2 B2 d2 | (e2 d2) (cA) | (B2 c2) B2 | (B2 A4 | B2 G2 d2 | c>d e>d) (c>d) | B4 A2 | B4 B2 | %8
w: Oh! if my|Lord _ would _|come _ and|meet, _|My soul should|stretch _ _ _ her _|wings in|haste, Fly|
w: Why should we|start _ and _|fear _ to|die? _|What tim- ’rous|worms _ _ _ we _|mor- tals|are! Death|
w: The pains, the|groans, _ the _|dy- * ing|strife _|Fright our ap-|proach- * * * ing _|souls a-|way; Still|
 (c>B c2) d2 | (e2 d2) g2 | (f2 e2) d2 | (d2 c2) d2 | (Ge dc) (BA) | (B2 A2) G2 | (3(^FAc B2) A2 | %15
w: fear- * * less|through _ death’s|i- * ron|gate, _ Nor|feel _ _ _ the _|ter- * rors|as _ _ _ she|
w: is _ _ the|gate _ of|end- * less|joy, _ And|yet _ _ _ we _|dread _ to|en- * * * ter|
w: we _ _ shrink|back _ a-|gain _ to|life, _ Fond|of _ _ _ our _|pri- * son|and _ _ _ our|
 G4 |] %16
w: pass’d.|
w: there.|
w: clay.|
V:4
 G,2 G,2 D,2 | (C,2 D,2) ^F,2 | (G,2 ^F,2) G,2 | D,6 | G,2 B,2 G,2 | (A,>B, C>B,) (A,>G,) | %6
w: Oh! if my|Lord _ would|come _ and|meet,|My soul should|stretch _ _ _ her _|
w: Why should we|start _ and|fear _ to|die?|What tim- ’rous|worms _ _ _ we _|
w: The pains, the|groans, _ the|dy- * ing|strife|Fright our ap-|proach- * * * ing _|
 F,4 F,,2 | B,,4 G,2 | %8
w: wings in|haste, Fly|
w: mor- tals|are! Death|
w: souls a-|way; Still|
"^Notes: The order of staves in the source is the same as given here: the topmost part and the third stave down (which carries the air) are bothprinted in the source in the treble clef, with no indication of octave. The topmost stave has been treated as a soprano part here, and the thirdstave down (air) as a tenor part. The alto and tenor parts in bar 4, given here as a crotchet slurred to a minim, are both printed in the sourceas a small crotchet grace note slurred to a full-sized dotted minim. The soprano notes on bar 6, beat 3 and bar 7, beats 1-2, given here as Cand Bb, are printed in the source as the Bb and A respectively, one degree of the scale lower. The soprano notes on beats 1-2 of bar 13 areprinted in the source as a crotchet Bb slurred to a quaver Bb and a quaver A.The slur between beats 1 and 2 of the bass part in bar 14 is absent from the source and has been added editorially.The first verse only of the text is underlaid in the source, with the further two verses given here printed after the music.The bass notes on bar 1 beat 3, bar 4 beat 1, and bar 12 beat 3 are figured with sharps underneath in the source, but no other bass figuringis given. A cautionary natural is printed before the alto F in bar 6 in the source." F,4 F,2 | %9
w: fear- less|
w: is the|
w: we shrink|
 B,4 E,2 | (D,2 C,2) B,,2 | F,4 D,2 | G,4 D,2 | (G,2 D,2) B,,2 | D,4 D,2 | G,,4 |] %16
w: through death’s|i- * ron|gate, Nor|feel the|ter- * rors|as she|pass’d.|
w: gate of|end- * less|joy, And|yet we|dread _ to|en- ter|there.|
w: back a-|gain _ to|life, Fond|of our|pri- * son|and our|clay.|

